!!!COM: Music21
!!!OTL: jig_Perfect-Pitch--The
!!!OMV: jig_Perfect-Pitch--The
**kern
*clefG2
*k[f#c#]
*D:
*M6/8
=1
8b
=||
4.cc#
8cc#L
8b
8aJ
=
8f#L
8a
8f#J
4.e
=
8eL
8f#
8aJ
8cc#L
8b
8aJ
=
8cc#L
8b
8bJ
8bL
8a
8bJ
=
4.cc#
8cc#L
8b
8aJ
=
8f#L
8a
8f#J
4.e
=
8eL
8f#
8aJ
8cc#L
8b
8aJ
!!linebreak:original
=
4b
[8a
4a]
8b
=||
4.cc#
8cc#L
8b
8aJ
=
8f#L
8a
8f#J
4.e
=
8eL
8f#
8aJ
8cc#L
8b
8aJ
=
8cc#L
8b
8bJ
8bL
8a
8bJ
=
4.cc#
8cc#L
8b
8aJ
=
8f#L
8a
8f#J
4.e
!!linebreak:original
=
8eL
8f#
8aJ
8cc#L
8b
8aJ
=
4b
[8a
4a]
8b
=||
8cc#L
8ee
8eeJ
8ff#L
8ee
8cc#J
=
8eeL
8ff#
8aaJ
8eeL
8cc#
8aJ
=
4ff#
8ee
4ff#
8ee
=
8eeL
8ff#
8aaJ
8eeL
8cc#
8aJ
=
8cc#L
8ee
8eeJ
8ff#L
8ee
8cc#J
!!linebreak:original
=
8eeL
8ff#
8aaJ
8eeL
8cc#
8aJ
=
8cc#L
8ff#
8ff#J
8eeL
8cc#
8aJ
=
4b
[8a
4a]
8b
=||
8cc#L
8ee
8eeJ
8ff#L
8ee
8cc#J
=
8eeL
8ff#
8aaJ
8eeL
8cc#
8aJ
=
4ff#
8ee
4ff#
8ee
=
8eeL
8ff#
8aaJ
8eeL
8cc#
8aJ
!!linebreak:original
=
8cc#L
8ee
8eeJ
8ff#L
8ee
8cc#J
=
8eeL
8ff#
8aaJ
8eeL
8cc#
8aJ
=
8cc#L
8ff#
8ff#J
8eeL
8cc#
8aJ
=
4b
[8a
4.a]
=||
*-
